X: 3
T: Addig megyek, míg a szememel látok
S: Szilágysági magyar népzene 151.
O: Varsolc, Kis Zsuzsanna (14), 1970.12.11
M: 2/4
L: 1/4
Q: 1/4=114
K: Bb
BA G<d| d/c/G/B/ | A<G G z| 
w:Ad-dig me-gyek, még a sze-mem-mel lá-tok,
d/d/B/B/ c/d/e/c/| f<d dz| 
w: Még egy sű-rű er-dő-re rá-ta-lá-lok
d/d/B/B/ c/d/e/c/| f<d G>z| 
w: sű-rü er-dő kö-ze-pé-be ka-szár-nya
{A}BA G<{/B}d| d/c/G/B/ | A<G G z |
w: O-da le-szek há-rom é-vig be-zár-va.
W: Addig megyek, még a szememmel látok
W: Még egy gyászos temetőre találok,
W: Gyásztemető, én leszek a halottja,
W: Barna kislány, te vagy annak az oka.
W: 
W: Fehér gyolcsból csináltatok zsebkendőt,
W: Itt Varsolcon nem találok szeretőt,
W: Elmegyek én más faluba keresni,
W: Másfalusi fog igazán szeretni.
W: 
W: Addig megyek még a szememmel látok,
W: Még egy vadrucafészekre találok,
W: Vadrucafészek sosincs tojás nélkül,
W: Az én szívem soha nincs bánat nélkül.

